X:330
T:The Oklahoma Rooster
C:Dave Cotton
N:From John Baldry Transcribed By Mike Stangeland 
R:bluegrass
L:1/8
Q:1/4=245
M:4/4
K:D
z6 (3FG^G |: "D"A2 AB dB de | fe fg a2 ag | "A7"ef af ed cA | "D"de dB AF G^G | 
A2 AB dB d2 | ef ef ga gf | "A7"ga gf ed cA |1 d2 de d2 (3FG^G :|2 d2 de fg a2 | 
|: "B"[b3^d3]c' [b4d4] | z2 Bc de f2 | "A"[a3c3]b [a4c4] | z2 AB cd e2 | "G"[g6B6] [g2B2] | 
"D"[f2A2] fg ag fa | "A7"ga gf ed ce |1 d2 d2 ef ga :|2 d"D"c de d4 | 


